X:73
T:Parsou
R:Waltz
O:France
M:3/4
C:Trad.
K:D
D2F2A2|d6|cde2d2|B6|G2B2G2|F2A2F2|E2FGFE|D6:|
|:A2|A2FAFA|B2GBGB|c2AcAc|d2c2B2|\
A2FAFA|B2GBGB|c2AcAc|d6:|
